X:120
T:Memories of Texas Waltz
R:waltz
C:Bruce Osborne  --  April 1975
Z:abc by bosborne@kos.net
M:3/4
L:1/8
K:Bb
FE|D2 F2 [DB][D B]|[F2 d2] [E2 c2] (3[DB][Dc2/3][D2/3 B2/3]|[G,3 E3] [F B] [G2 e2]|[F3 d3] F [DB][E c]|\
[F2 d2] [F2 d2] [d2 g2]|[d3 f3] F (3Bcd|[c3 =e3] [c =e] (3[A=e][c=e2/3][A2/3 =e2/3]|[F3 A3] G FE|\
D2 F2 [DB][D B]|[F2 d2] [E2 c2] (3[DB][Dc2/3][D2/3 B2/3]|[G,3 E3] [F B] [G2 e2]|[F3 d3] F [DB][E c]|\
[F2 d2] [F2 d2] [d2 g2]|(3[df][dg2/3][d2/3 f2/3] [d2 f2] [D2 B2]|(3[Ec][Ed2/3][E2/3 c2/3] [D2 B2] [D2 A2]|[D4 B4]||\
(3[Bg][Bg2/3][B2/3 g2/3]|[B2 g2] [A3 f3] [B g]|[A4 f4] (3[Ec][Ed2/3][E2/3 c2/3]|[E2 c2] [D3 B3] [D A]|[D3 B3] F (3Bdg|\
[A4 f4] (3[cf][df2/3][c2/3 f2/3]|[A3 f3] F [DB][E c]|(3[Fd][Fe2/3][F2/3 d2/3] [F2 d2] [E2 c2]|[D4 B4] (3[Bg][Bg2/3][B2/3 g2/3]|[B2 g2] [A3 f3] [A g]|\
[A4 f4] (3[Ec][Ed2/3][E2/3 c2/3]|[E2 c2] [D3 B3] [D A]|[D3 B3] F (3Bdg|[A4 f4] (3[cf][df2/3][c2/3 f2/3]|[A3 f3] [D B] [DB][E c]|\
[F2 d2] [F2 d2] [E2 c2]|[D4 B4]||
